X:1
T:Title
%%score { ( 1 4 ) | ( 2 3 ) }
L:1/8
Q:1/4=92
M:2/4
K:E
V:1 treble nm="Grand Piano"
V:4 treble 
V:2 bass 
V:3 bass 
V:1
 EF G[FA] | [Ac]2 [GB]2 | [GB][Ac] [GB][B,EG] | [B,DF]4 | [G,E][A,EF] [B,EG][B,FA] | %5
w: W.~W.~Bentley * * *|||||
 [EAc]2 [EGB]2 | [B,EG][B,EG] [B,DF].[B,DG] | [G,E]4 | [DB][DF] [DF][EG] | [FA]4 | %10
w: |||||
 [GB][EG] [EG][FA] | [GB]4 | [Ge][Ge] [Bd][Ac] | [GB]2 [EG]2 | z2 z [DF] | E4 |] %16
w: ||||||
V:2
 [E,G,][E,A,E] [E,B,E][E,B,] | [E,E]2 [E,E]2 | [E,E][E,E] [E,E]E, | B,,4 | E,E, E,E, | E,2 E,2 | %6
 E,E, .B,,>A, | E,4 | [B,,B,][B,,B,] [B,,B,][B,,B,] | [B,,B,]4 | [E,B,][E,B,] [E,B,][E,B,] | %11
 [E,E]4 | [E,B,][E,B,] [E,E][E,E] | [E,E]2 [E,B,]2 | [B,,B,][B,,B,] [B,,B,].[B,,B,] | [E,G,]4 |] %16
V:3
 x4 | x4 | x4 | x4 | x4 | x4 | z2 z B,, | x4 | x4 | x4 | x4 | x4 | x4 | x4 | x4 | x4 |] %16
V:4
 x4 | x4 | x4 | x4 | x4 | x4 | x4 | x4 | x4 | x4 | x4 | x4 | x4 | x4 | [DB][DF] .[DG]>A, | x4 |] %16

